!!!COM: Corelli, Arcangelo
!!!OTL: 
!!!ONM: Opus 6, No. 12
!!!OMV: 1
!!!CDT: 1653/2/17/-1713/1/8/
!!!OCY: Italia
**kern	**kern	**kern	**kern	**kern	**kern	**kern
*clefC	*clefG	*clefG	*clefG	*clefC	*clefG	*clefG
*k[b-]	*k[b-]	*k[b-]	*k[b-]	*k[b-]	*k[b-]	*k[b-]
*F:	*F:	*F:	*F:	*F:	*F:	*F:
*M4/4	*M4/4	*M4/4	*M4/4	*M4/4	*M4/4	*M4/4
=1	=1	=1	=1	=1	=1	=1
1r	1r	1r	1r	8F	4r	2ff
.	.	.	.	8G	.	.
.	.	.	.	8A	2ff	.
.	.	.	.	8F	.	.
.	.	.	.	8B-	.	4.gg
.	.	.	.	8G	.	.
.	.	.	.	8c	4ee	.
.	.	.	.	8C	.	16ff
.	.	.	.	.	.	16gg
=2	=2	=2	=2	=2	=2	=2
1r	1r	1r	1r	8F	8ff	8aa
.	.	.	.	8G	8cc	8ff
.	.	.	.	8A	8ff	8r
.	.	.	.	4f	8a	16aa
.	.	.	.	.	.	16ff
.	.	.	.	.	8b	8gg
.	.	.	.	8e	4cc	8cc
.	.	.	.	8d	.	4ff
.	.	.	.	8G	8b	.
=3	=3	=3	=3	=3	=3	=3
4.r	4.r	4.r	4.r	4c	4cc	4ee
.	.	.	.	8r	8r	8r
8AA	8f	8cc	8cc	8AA	8cc	8cc
4D	8f	4.ff	8cc	4D	4.ff	8cc
.	8d	.	8f	.	.	8f
8r	[4g	.	[4b-	8r	.	[4b-
8GG	.	8gg	.	8GG	8gg	.
=4	=4	=4	=4	=4	=4	=4
8C	8g]	8ee	8b-]	8C	8ee	8b-]
8F	8a	4cc	8a	8F	4cc	8a
8B-	8f	.	8d	8B-	.	8d
8BB-	8b-	4b-	8dd	8BB-	4b-	8dd
8C	8g	.	8e	8C	.	8e
8F	16a	8a	4f	8F	8a	4f
.	16b-	.	.	.	.	.
8c	8.cc	4g	.	8c	4g	.
8C	.	.	8e	8C	.	8e
.	16cc	.	.	.	.	.
=5	=5	=5	=5	=5	=5	=5
2F	2a	2f	2f	2F	2f	2f
2r	2r	2r	2r	8F	4r	2ff
.	.	.	.	8G	.	.
.	.	.	.	8A	[4ff	.
.	.	.	.	8F	.	.
=6	=6	=6	=6	=6	=6	=6
1r	1r	1r	1r	8B-	4ff]	4.gg
.	.	.	.	8G	.	.
.	.	.	.	8c	4ee	.
.	.	.	.	8C	.	16ff
.	.	.	.	.	.	16gg
.	.	.	.	8F	8ff	8aa
.	.	.	.	8G	8cc	8ff
.	.	.	.	8A	8ff	8r
.	.	.	.	[8f	8a	16aa
.	.	.	.	.	.	16ff
=7	=7	=7	=7	=7	=7	=7
1r	1r	1r	1r	8f]	8b	8gg
.	.	.	.	8e	4cc	8cc
.	.	.	.	8d	.	4ff
.	.	.	.	8G	8b	.
.	.	.	.	8c	8cc	4ee
.	.	.	.	8d	8cc	.
.	.	.	.	8e	[4gg	8r
.	.	.	.	8E	.	8gg
=8	=8	=8	=8	=8	=8	=8
1r	1r	1r	1r	8F	8gg]	4aa
.	.	.	.	8G	8cc	.
.	.	.	.	8A	4ff	8r
.	.	.	.	8F	.	8aa
.	.	.	.	8G	8r	4bb
.	.	.	.	16G	8g	.
.	.	.	.	16F	.	.
.	.	.	.	8E	[4cc	8r
.	.	.	.	8C	.	8ccc
=9	=9	=9	=9	=9	=9	=9
2r	2..r	2..r	2r	8F	4cc]	16aa
.	.	.	.	.	.	16bb
.	.	.	.	16E	.	16ccc
.	.	.	.	16F	.	16ff
.	.	.	.	8G	8.cc	8ee
.	.	.	.	8GG	.	8dd
.	.	.	.	.	16b	.
8r	.	.	8r	8C	4cc	8cc
8c	.	.	8cc	8c	.	8cc
8A	.	.	[4ff	8A	8r	[4ff
8F	8a	8cc	.	8F	8cc	.
=10	=10	=10	=10	=10	=10	=10
8B-	4d	4.gg	8ff]	8B-	4.gg	8ff]
8G	.	.	8cc	8G	.	8cc
8E	4c	.	4.gg	8E	.	4.gg
8C	.	8cc	.	8C	8cc	.
8F	4.c	4.aa	.	8F	4.aa	.
8G	.	.	8cc	8G	.	8cc
8A	.	.	[4ff	8A	.	[4ff
8F	8cc	8aa	.	8F	8aa	.
=11	=11	=11	=11	=11	=11	=11
8BB	4dd	4.gg	8ff]	8BB	4.gg	8ff]
8BB	.	.	16ee	8BB	.	16ee
.	.	.	16dd	.	.	16dd
8C#	4a	.	4.ee	8C#	.	4.ee
8AA	.	16aa	.	8AA	16aa	.
.	.	16gg	.	.	16gg	.
8D	4.a	4.ff	.	8D	4.ff	.
8E	.	.	8a	8E	.	8a
8F	.	.	[4dd	8F	.	[4dd
8D	8f	8aa	.	8D	8aa	.
=12	=12	=12	=12	=12	=12	=12
8G	16e	16bb-	4dd]	8G	16bb-	4dd]
.	16f	16aa	.	.	16aa	.
8E	8g	16gg	.	8E	16gg	.
.	.	16ff	.	.	16ff	.
8A	8.a	4ee	4cc#	8A	4ee	4cc#
8AA	.	.	.	8AA	.	.
.	16a	.	.	.	.	.
4D	4a	4dd	4dd	4D	4dd	8dd
.	.	.	.	.	.	16dd
.	.	.	.	.	.	16ee
4r	4r	4r	4r	8r	16r	[4ff
.	.	.	.	.	16ff	.
.	.	.	.	8A	16gg	.
.	.	.	.	.	16aa	.
=13	=13	=13	=13	=13	=13	=13
1r	1r	1r	1r	4B-	4dd	16ff]
.	.	.	.	.	.	16dd
.	.	.	.	.	.	16ee
.	.	.	.	.	.	16ff
.	.	.	.	8r	16r	[4gg
.	.	.	.	.	16gg	.
.	.	.	.	8G	16aa	.
.	.	.	.	.	16bb-	.
.	.	.	.	4c	4ee	16gg]
.	.	.	.	.	.	16gg
.	.	.	.	.	.	16ee
.	.	.	.	.	.	16cc
.	.	.	.	8r	16r	[4aa
.	.	.	.	.	16aa	.
.	.	.	.	8A	16bb-	.
.	.	.	.	.	16ccc	.
=14	=14	=14	=14	=14	=14	=14
1r	1r	1r	1r	4d	4ff	16aa]
.	.	.	.	.	.	16ff
.	.	.	.	.	.	16gg
.	.	.	.	.	.	16aa
.	.	.	.	8r	16r	[4bb-
.	.	.	.	.	16bb-	.
.	.	.	.	8D	16ccc	.
.	.	.	.	.	16ddd	.
.	.	.	.	4E	4gg	16bb-]
.	.	.	.	.	.	16bb-
.	.	.	.	.	.	16gg
.	.	.	.	.	.	16ee
.	.	.	.	8r	8r	8ccc
.	.	.	.	8C	8gg	8bb-
=15	=15	=15	=15	=15	=15	=15
4.r	4.r	4.r	8r	8F	4cc	8aa
.	.	.	8ff	8G	.	8ff
.	.	.	4.ccc	8A	8r	4.ccc
8AA	8a	8cc	.	8AA	8cc	.
4.D	4a	4.ff	.	4.D	4.ff	.
.	.	.	16bb-	.	.	16bb-
.	.	.	16aa	.	.	16aa
.	8r	.	[4bb-	.	.	[4bb-
8G	8g	16ee	.	8G	16ee	.
.	.	16dd	.	.	16dd	.
=16	=16	=16	=16	=16	=16	=16
4.C	4g	4.ee	8bb-]	4.C	4.ee	8bb-]
.	.	.	16aa	.	.	16aa
.	.	.	16gg	.	.	16gg
.	8r	.	4.aa	.	.	4.aa
8F	8f	16dd	.	8F	16dd	.
.	.	16cc	.	.	16cc	.
4.BB-	4f	4.dd	.	4.BB-	4.dd	.
.	.	.	8dd	.	.	8dd
.	8r	.	[4gg	.	.	[4gg
16AA	8g	16cc	.	16AA	16cc	.
16GG	.	16b-	.	16GG	16b-	.
=17	=17	=17	=17	=17	=17	=17
4.AA	4c	4.cc	8gg]	4.AA	4.cc	8gg]
.	.	.	8cc	.	.	8cc
.	8r	.	2ff	.	.	2ff
8A	8a	16ff	.	8A	16ff	.
.	.	16cc	.	.	16cc	.
8B-	16g	16dd	.	8B-	16dd	.
.	16a	16cc	.	.	16cc	.
8G	8b-	16b-	.	8G	16b-	.
.	.	16a	.	.	16a	.
8c	8.cc	4g	4ee	8c	4g	4ee
8C	.	.	.	8C	.	.
.	16cc	.	.	.	.	.
=18	=18	=18	=18	=18	=18	=18
4F	8a	8f	8ff	8F	4f	4ff
.	8f	8a	8dd	8f	.	.
2.r	4e	4g	4cc	8e	8r	8r
.	.	.	.	8E	8gg	8ccc
.	8r	8r	8r	8D	4ff	4bb-
.	8d	8f	8b-	8d	.	.
.	4c	4e	4a	8c	8r	8r
.	.	.	.	8C	8ee	8aa
=19	=19	=19	=19	=19	=19	=19
1r	8r	8r	8r	8BB-	4dd	4gg
.	8B-	8d	8g	8B-	.	.
.	4A	4c	4f	8A	8r	8r
.	.	.	.	8AA	8ff	8ccc
.	8r	8r	8r	8GG	8b-	8ee
.	8f	8a	8ff	8F	8a	16ff
.	.	.	.	.	.	32gg
.	.	.	.	.	.	32aa
.	8cc	8g	8.ff	8c	8g	8.ff
.	8c	8cc	.	8C	8cc	.
.	.	.	16ee	.	.	16ee
=20	=20	=20	=20	=20	=20	=20
8F	4.f	4.a	8ff	8F	4.a	8ff
8G	.	.	8f	8G	.	8f
8A	.	.	4.cc	8A	.	4.cc
8AA	8f	8cc	.	8AA	8cc	.
8BB-	4.f	4.dd	.	8BB-	4.dd	.
8C	.	.	8f	8C	.	8f
8D	.	.	[4b-	8D	.	[4b-
8BB-	8d	8gg	.	8BB-	8gg	.
=21	=21	=21	=21	=21	=21	=21
8C	8g	8ee	8b-]	8C	8ee	8b-]
8F	8a	4cc	8a	8F	4cc	8a
8B-	8f	.	8d	8B-	.	8d
8BB-	8b-	4b-	8dd	8BB-	4b-	8dd
8C	8g	.	8e	8C	.	8e
8F	16a	8a	4f	8F	8a	4f
.	16b-	.	.	.	.	.
8c	8.cc	4g	.	8c	4g	.
8C	.	.	8e	8C	.	8e
.	16cc	.	.	.	.	.
=22	=22	=22	=22	=22	=22	=22
4F	4a	4f	[1f	8F	4f	[1f
.	.	.	.	8f	.	.
4E	4r	4r	.	8e	4r	.
.	.	.	.	8E	.	.
4D	4f	[2f	.	8D	[2f	.
.	.	.	.	8d	.	.
4C	4e	.	.	8c	.	.
.	.	.	.	8C	.	.
=23	=23	=23	=23	=23	=23	=23
4BB-	4d	2f]	2f]	8BB-	2f]	2f]
.	.	.	.	8B-	.	.
4AA	4c	.	.	8A	.	.
.	.	.	.	8AA	.	.
4GG	4g	4e	4b-	4GG	4e	4b-
4FF	8a	[4f	4a	4FF	[4f	4a
.	8b-	.	.	.	.	.
=24	=24	=24	=24	=24	=24	=24
4C	4.cc	4f]	2g	4C	4f]	2g
4CC	.	4e	.	4CC	4e	.
.	8c	.	.	.	.	.
2FF	2A	2f	2f	2FF	2f	2f
==	==	==	==	==	==	==
*-	*-	*-	*-	*-	*-	*-
!!!RWG: This file only contains pitch and duration data.
!!!RWG: Transposing instruments are not transposed.
!!!RWG: Durations of rests and tied notes may be interpreted.
!!!RWG: Key is interpreted using the Humdrum key tool.
!!!SCA: 
!!!YOR: Chrysander Edition
!!!AGN: concerto grosso
!!!AFT: stage1
!!!ENC: F. Bennion
!!!END: 1997/04/15
!!!AST: baroque
!!!YEC: Copyright 1994, Center for Computer Assisted Research in the Humanities
!!!YEM: Rights to all derivative electronic formats reserved.
!!!YEM: Refer to licensing agreement for further details.
!!!YEN: United States of America
!!!EED: W.B. Hewlett
!!!KEY: 602950227
!!!EMD: Converted from MuseData to Humdrum Aug 2, 1999, by Bret Aarden using muse2kern.
!!!VTS: 1575035200
